wp-content/uploads/stamp08.svg

<?xml version="1.0" encoding="UTF-8"?> <svg xmlns="http://www.w3.org/2000/svg" width="148" height="23" viewBox="0 0 148 23" fill="none"><rect width="148" height="23" rx="5" fill="#032538"></rect><path d="M11.552 14.92V13.576L17.76 11.496V11.304L11.552 9.224V7.88L18.24 10.184V12.616L11.552 14.92ZM30.7618 5.8H34.4418C35.8284 5.8 36.8418 6.13067 37.4818 6.792C38.1218 7.45333 38.4418 8.50933 38.4418 9.96V12.84C38.4418 14.2907 38.1218 15.3467 37.4818 16.008C36.8418 16.6693 35.8284 17 34.4418 17H30.7618V15.736H31.7218V7.048H30.7618V5.8ZM34.2498 15.752C34.7404 15.752 35.1618 15.704 35.5138 15.608C35.8764 15.512 36.1751 15.352 36.4098 15.128C36.6444 14.8933 36.8151 14.584 36.9218 14.2C37.0391 13.816 37.0978 13.3307 37.0978 12.744V10.056C37.0978 9.46933 37.0391 8.984 36.9218 8.6C36.8151 8.216 36.6444 7.912 36.4098 7.688C36.1751 7.45333 35.8764 7.288 35.5138 7.192C35.1618 7.096 34.7404 7.048 34.2498 7.048H33.0658V15.752H34.2498ZM46.6866 14.216H41.8866L41.0706 17H39.6306L43.0226 5.8H45.5506L48.9426 17H47.5026L46.6866 14.216ZM44.1906 6.376L42.2546 12.968H46.3186L44.3826 6.376H44.1906ZM50.1475 5.8H58.0195V7.048H54.7555V17H53.4115V7.048H50.1475V5.8ZM66.2804 14.216H61.4804L60.6644 17H59.2244L62.6164 5.8H65.1444L68.5364 17H67.0964L66.2804 14.216ZM63.7844 6.376L61.8484 12.968H65.9124L63.9764 6.376H63.7844ZM71.2773 12.264H76.0773V13.416H71.2773V12.264ZM79.7461 5.8H83.4261C84.8128 5.8 85.8261 6.13067 86.4661 6.792C87.1061 7.45333 87.4261 8.50933 87.4261 9.96V12.84C87.4261 14.2907 87.1061 15.3467 86.4661 16.008C85.8261 16.6693 84.8128 17 83.4261 17H79.7461V15.736H80.7061V7.048H79.7461V5.8ZM83.2341 15.752C83.7248 15.752 84.1461 15.704 84.4981 15.608C84.8608 15.512 85.1595 15.352 85.3941 15.128C85.6288 14.8933 85.7995 14.584 85.9061 14.2C86.0235 13.816 86.0821 13.3307 86.0821 12.744V10.056C86.0821 9.46933 86.0235 8.984 85.9061 8.6C85.7995 8.216 85.6288 7.912 85.3941 7.688C85.1595 7.45333 84.8608 7.288 84.4981 7.192C84.1461 7.096 83.7248 7.048 83.2341 7.048H82.0501V15.752H83.2341ZM96.775 17H95.431V13.256C95.431 12.9787 95.367 12.7653 95.239 12.616C95.111 12.4667 94.887 12.392 94.567 12.392H91.079V17H89.735V5.8H93.735C94.311 5.8 94.8123 5.88533 95.239 6.056C95.6657 6.216 96.0177 6.43467 96.295 6.712C96.583 6.98933 96.7963 7.31467 96.935 7.688C97.0843 8.05067 97.159 8.43467 97.159 8.84V9.32C97.159 9.736 97.0417 10.152 96.807 10.568C96.583 10.984 96.231 11.304 95.751 11.528V11.72C96.071 11.7733 96.3217 11.9013 96.503 12.104C96.6843 12.3067 96.775 12.5947 96.775 12.968V17ZM91.079 11.144H93.575C94.3323 11.144 94.8923 10.984 95.255 10.664C95.6283 10.3333 95.815 9.85333 95.815 9.224V8.936C95.815 8.37067 95.6283 7.91733 95.255 7.576C94.8923 7.224 94.3323 7.048 93.575 7.048H91.079V11.144ZM99.5159 5.8H106.62V7.048H103.74V15.752H106.62V17H99.5159V15.752H102.396V7.048H99.5159V5.8ZM108.401 5.8H109.841L112.769 16.424H112.961L115.889 5.8H117.329L114.161 17H111.569L108.401 5.8ZM119.27 5.8H126.054V7.048H120.614V10.76H125.958V12.008H120.614V15.752H126.15V17H119.27V5.8ZM134.651 16.424H134.843V5.8H136.187V17H133.499L130.267 6.376H130.075V17H128.731V5.8H131.419L134.651 16.424Z" fill="#C4EC94"></path></svg>

<svg xmlns="http://www.w3.org/2000/svg" width="148" height="23" fill="none"><rect width="148" height="23" fill="#032538" rx="5"/><path fill="#C4EC94" d="M11.552 14.92v-1.344l6.208-2.08v-.192l-6.208-2.08V7.88l6.688 2.304v2.432l-6.688 2.304Zm19.21-9.12h3.68c1.386 0 2.4.33 3.04.992.64.661.96 1.717.96 3.168v2.88c0 1.45-.32 2.507-.96 3.168-.64.661-1.654.992-3.04.992h-3.68v-1.264h.96V7.048h-.96V5.8Zm3.488 9.952c.49 0 .912-.048 1.264-.144.362-.096.661-.256.896-.48.234-.235.405-.544.512-.928.117-.384.176-.87.176-1.456v-2.688c0-.587-.059-1.072-.176-1.456-.107-.384-.278-.688-.512-.912a1.94 1.94 0 0 0-.896-.496 4.85 4.85 0 0 0-1.264-.144h-1.184v8.704h1.184Zm12.437-1.536h-4.8L41.07 17h-1.44l3.392-11.2h2.528L48.943 17h-1.44l-.816-2.784Zm-2.496-7.84-1.936 6.592h4.064l-1.936-6.592h-.192Zm5.956-.576h7.873v1.248h-3.265V17h-1.344V7.048h-3.264V5.8Zm16.133 8.416h-4.8L60.664 17h-1.44l3.392-11.2h2.528L68.536 17h-1.44l-.816-2.784Zm-2.496-7.84-1.936 6.592h4.064l-1.936-6.592h-.192Zm7.493 5.888h4.8v1.152h-4.8v-1.152Zm8.47-6.464h3.68c1.386 0 2.4.33 3.04.992.64.661.96 1.717.96 3.168v2.88c0 1.45-.32 2.507-.96 3.168-.64.661-1.654.992-3.04.992h-3.68v-1.264h.96V7.048h-.96V5.8Zm3.487 9.952c.49 0 .912-.048 1.264-.144.363-.096.661-.256.896-.48.235-.235.405-.544.512-.928.117-.384.176-.87.176-1.456v-2.688c0-.587-.058-1.072-.176-1.456-.107-.384-.277-.688-.512-.912a1.94 1.94 0 0 0-.896-.496 4.85 4.85 0 0 0-1.264-.144H82.05v8.704h1.184ZM96.775 17h-1.344v-3.744c0-.277-.064-.49-.192-.64-.128-.15-.352-.224-.672-.224h-3.488V17h-1.344V5.8h4c.576 0 1.077.085 1.504.256.427.16.779.379 1.056.656.288.277.501.603.64.976.15.363.224.747.224 1.152v.48c0 .416-.117.832-.352 1.248-.224.416-.576.736-1.056.96v.192c.32.053.57.181.752.384.181.203.272.49.272.864V17Zm-5.696-5.856h2.496c.757 0 1.317-.16 1.68-.48.373-.33.56-.81.56-1.44v-.288c0-.565-.187-1.019-.56-1.36-.363-.352-.923-.528-1.68-.528h-2.496v4.096ZM99.516 5.8h7.104v1.248h-2.88v8.704h2.88V17h-7.104v-1.248h2.88V7.048h-2.88V5.8Zm8.885 0h1.44l2.928 10.624h.192L115.889 5.8h1.44L114.161 17h-2.592l-3.168-11.2Zm10.869 0h6.784v1.248h-5.44v3.712h5.344v1.248h-5.344v3.744h5.536V17h-6.88V5.8Zm15.381 10.624h.192V5.8h1.344V17h-2.688l-3.232-10.624h-.192V17h-1.344V5.8h2.688l3.232 10.624Z"/></svg>
